cheesecake-frontend/public/assets/arrowDownDashed.svg

<svg width="30" height="31" viewBox="0 0 30 31" fill="none" xmlns="http://www.w3.org/2000/svg">
<g id="Frame 23">
<rect x="29.5814" y="30.0814" width="29.1628" height="29.1628" rx="1.4564" transform="rotate(-180 29.5814 30.0814)" stroke="black" stroke-width="0.837209" stroke-linecap="round" stroke-dasharray="3.49 3.49"/>
<path id="Arrow 1" d="M14.5388 22.9925C14.7935 23.2472 15.2065 23.2472 15.4612 22.9925L19.6121 18.8415C19.8668 18.5868 19.8668 18.1738 19.6121 17.9191C19.3574 17.6644 18.9444 17.6644 18.6897 17.9191L15 21.6088L11.3103 17.9191C11.0556 17.6644 10.6426 17.6644 10.3879 17.9191C10.1332 18.1738 10.1332 18.5868 10.3879 18.8415L14.5388 22.9925ZM14.3477 8.46875L14.3477 22.5312H15.6523L15.6523 8.46875H14.3477Z" fill="black"/>
</g>
</svg>

<?xml version="1.0" encoding="utf-8"?>
<!-- Generator: Adobe Illustrator 28.2.0, SVG Export Plug-In . SVG Version: 6.00 Build 0)  -->
<svg version="1.1" id="Layer_1" xmlns="http://www.w3.org/2000/svg" xmlns:xlink="http://www.w3.org/1999/xlink" x="0px" y="0px"
	 viewBox="0 0 30 31" style="enable-background:new 0 0 30 31;" xml:space="preserve">
<style type="text/css">
	.st0{fill:none;stroke:#FFFFFF;stroke-width:0.8372;stroke-linecap:round;stroke-dasharray:3.49,3.49;}
	.st1{fill:#FFFFFF;}
</style>
<g id="Frame_23">
	<path class="st0" d="M28.1,30.1H1.9c-0.8,0-1.5-0.7-1.5-1.5V2.4c0-0.8,0.7-1.5,1.5-1.5h26.2c0.8,0,1.5,0.7,1.5,1.5v26.2
		C29.6,29.4,28.9,30.1,28.1,30.1z"/>
	<path id="Arrow_1" class="st1" d="M14.5,23c0.3,0.3,0.7,0.3,0.9,0l4.2-4.2c0.3-0.3,0.3-0.7,0-0.9s-0.7-0.3-0.9,0L15,21.6l-3.7-3.7
		c-0.3-0.3-0.7-0.3-0.9,0c-0.3,0.3-0.3,0.7,0,0.9L14.5,23z M14.3,8.5v14.1h1.3V8.5H14.3z"/>
</g>
</svg>
